X:68
T:Del Caro’s Hornpipe. TJD.68
M:2/2
L:1/8
Q:1/4=120
S:T.J.Dixon MS2, Lincolnshire, early 19thC
R:.hornpipe
A:Lincolnshire, Holton le Moor
Z:vmp.R.Greig2010
K:A
Acea gfef|edcB cde2|Acea gfef|edcB A4:|!
|:Acea (f/g/a) (f/g/a)|EGBd (c/d/e) (c/d/e)|Acea (f/g/a) (f/g/a)|edcBA2A2:|]

